X: 20642
Q: "Strathspey."
M: 2/4
L: 1/16
K: Gm
(dc) |:\
(BABc) dcd=e | f2c2c3B | A2F2F2A2 | c4 (dcBA) |\
b3ga3^f | g3d=f3c | A2F2F2A2 | c4 (dcBA) |]


